X: 11583
M: 3/4
L: 1/8
K: Bb
d6 | B3 A/B/ c2 | d6 | gfdBF2 |\
c6 | B3 A/B/ c2 | edgfec | bagfdB |\
d6 | B3 A/B/ c2 | d6 | gfdBF2 |\
(f=eg)f_ec | bagfec | (f=eg)f_eA | B6 :|
|:\
!p!(f6 | =e2)f2g2 | (a6 | f2)c2A2 |\
(f6 | =e2)f2g2 | a6 | (f2=e2_e2) |\
!f!d6 | TB3 A/B/ c2 | d6 | gfdBF2 |\
(f=eg)f_ed | bagfec | (f=eg)f_ec | {A2}B6 :|


